file/moca.svg

<?xml version="1.0" encoding="UTF-8" standalone="no"?>
<!DOCTYPE svg PUBLIC "-//W3C//DTD SVG 1.1//EN" "http://www.w3.org/Graphics/SVG/1.1/DTD/svg11.dtd">
<svg width="100%" height="100%" viewBox="0 0 560 400" version="1.1" xmlns="http://www.w3.org/2000/svg" xmlns:xlink="http://www.w3.org/1999/xlink" xml:space="preserve" xmlns:serif="http://www.serif.com/" style="fill-rule:evenodd;clip-rule:evenodd;stroke-linejoin:round;stroke-miterlimit:1.41421;">
    <g transform="matrix(1.54321,0,0,1.54321,-76.8673,-57.7161)">
        <path d="M326.695,137.84L294.835,193.82L359.275,193.82L326.695,137.84Z" style="fill:rgb(238,64,35);fill-rule:nonzero;"/>
        <path d="M284.305,146.03C286.555,148.19 288.085,150.98 287.635,154.31C287.365,156.38 286.105,158.36 284.035,159.26C282.415,160.07 280.165,159.71 278.725,158.72C274.945,156.74 274.045,152.69 272.425,149.36C270.625,147.02 267.745,146.03 264.775,146.84C259.375,148.46 258.115,154.22 257.035,158.9C255.685,165.74 255.685,173.75 257.845,180.14C259.465,184.19 263.425,187.88 267.925,187.97C273.775,188.6 279.085,186.62 282.955,182.03L283.675,181.13C284.935,182.21 286.285,183.38 287.365,184.55C280.525,193.55 269.815,196.88 258.745,194.54C251.185,193.1 243.535,187.97 240.385,180.5C236.965,173.3 237.415,163.58 240.925,156.47C244.975,147.2 254.605,142.16 264.055,141.17C271.525,140.54 278.725,141.71 284.305,146.03" style="fill:rgb(35,31,32);fill-rule:nonzero;"/>
        <circle cx="196.555" cy="168.08" r="28.08" style="fill:rgb(13,176,75);"/>
        <rect x="103.225" y="142.07" width="52.2" height="51.48" style="fill:rgb(66,106,178);fill-rule:nonzero;"/>
    </g>
</svg>

<svg clip-rule="evenodd" fill-rule="evenodd" stroke-linejoin="round" stroke-miterlimit="1.41421" viewBox="0 0 560 400" xmlns="http://www.w3.org/2000/svg"><g transform="matrix(1.54321 0 0 1.54321 -76.8673 -57.7161)"><path d="m326.695 137.84-31.86 55.98h64.44z" fill="#ee4023" fill-rule="nonzero"/><path d="m284.305 146.03c2.25 2.16 3.78 4.95 3.33 8.28-.27 2.07-1.53 4.05-3.6 4.95-1.62.81-3.87.45-5.31-.54-3.78-1.98-4.68-6.03-6.3-9.36-1.8-2.34-4.68-3.33-7.65-2.52-5.4 1.62-6.66 7.38-7.74 12.06-1.35 6.84-1.35 14.85.81 21.24 1.62 4.05 5.58 7.74 10.08 7.83 5.85.63 11.16-1.35 15.03-5.94l.72-.9c1.26 1.08 2.61 2.25 3.69 3.42-6.84 9-17.55 12.33-28.62 9.99-7.56-1.44-15.21-6.57-18.36-14.04-3.42-7.2-2.97-16.92.54-24.03 4.05-9.27 13.68-14.31 23.13-15.3 7.47-.63 14.67.54 20.25 4.86" fill="#231f20" fill-rule="nonzero"/><circle cx="196.555" cy="168.08" fill="#0db04b" r="28.08"/><path d="m103.225 142.07h52.2v51.48h-52.2z" fill="#426ab2" fill-rule="nonzero"/></g></svg>
